public/images/charity.svg

<svg width="163" height="161" viewBox="0 0 163 161" fill="none" xmlns="http://www.w3.org/2000/svg">
<path d="M155.699 47.7113C150.908 38.919 143.738 31.7646 135.508 27.5668C133.481 26.5325 131.41 25.6338 129.354 24.8951C118.831 21.1152 107.824 21.2016 96.6365 25.1525C96.3554 25.2517 96.0756 25.3536 95.7958 25.4554C95.5646 25.5393 95.3335 25.6232 95.1019 25.7056C94.9966 25.7427 94.9083 25.7514 94.8231 25.7598L94.287 25.8244L94.0707 25.4945C94.0017 25.3894 93.9273 25.2805 93.8505 25.1681C93.6779 24.9141 93.4815 24.6263 93.3066 24.3252C87.5226 14.4107 78.4666 6.8416 67.8073 3.01257C55.8205 -1.29333 42.7499 -0.698344 31.0033 4.6882C19.5309 9.94938 11.0574 18.2052 5.81857 29.2278C5.69442 29.4897 5.52388 29.7071 5.37317 29.8993C5.33173 29.9522 5.2903 30.005 5.25032 30.0589L2.61673 37.3903C2.59947 37.5183 2.58515 37.6469 2.57028 37.7757C2.53066 38.1258 2.48971 38.4872 2.39938 38.8523C0.475619 46.6362 0.357091 54.0629 2.04805 60.9257C3.09987 65.1968 4.77516 69.3975 6.39485 73.4607L6.47883 73.6703C7.49131 76.2109 8.69619 78.733 9.86129 81.1722C10.3901 82.2799 10.9196 83.3878 11.4349 84.5031L11.7168 85.1137L11.0911 85.3588C5.56071 87.5266 2.13247 92.3306 2.14444 97.8975C2.15575 103.268 5.36144 107.841 10.51 109.833L11.0985 110.061L10.8728 110.651C9.40469 114.484 9.51713 118.115 11.2068 121.441C12.9311 124.837 15.759 126.957 19.8702 127.938L20.5046 128.09L20.3349 128.72C19.2945 132.58 19.8166 135.996 21.9292 139.163C23.8877 142.1 26.8524 143.851 30.7638 144.389L31.335 144.468L31.3102 145.044C31.2937 145.427 31.2706 145.796 31.2483 146.156C31.2021 146.883 31.1591 147.57 31.1835 148.236C31.3733 153.373 34.4106 157.612 39.1106 159.3C42.2385 160.424 45.702 160.21 48.8614 158.698C60.8146 152.979 72.9484 147.119 84.6824 141.453C89.0809 139.329 93.4782 137.206 97.8767 135.084C98.2658 134.897 98.7067 134.684 99.0652 134.423C100.086 133.683 100.46 132.365 99.9773 131.216C99.6976 130.55 99.1467 130.029 98.4659 129.784C97.9869 129.612 97.4781 129.589 96.9936 129.72C96.523 129.847 96.0592 130.074 95.568 130.315L95.3026 130.444C87.7636 134.078 80.2263 137.714 72.6881 141.349C64.3324 145.378 55.9778 149.408 47.6217 153.436L47.5301 153.48C46.8588 153.803 46.1642 154.138 45.4274 154.365C43.946 154.821 42.4161 154.794 41.002 154.286C39.2496 153.657 37.8554 152.355 37.0765 150.621C35.6415 147.423 36.7509 143.678 39.714 141.717C40.4141 141.253 41.156 140.857 41.8733 140.473L42.3279 140.229C45.7889 138.358 49.2516 136.489 52.7138 134.619C58.8251 131.319 64.9366 128.02 71.0432 124.71C72.835 123.74 73.4414 122.277 72.6654 120.797C71.8899 119.318 70.4117 119.05 68.6132 120.007C67.4724 120.613 66.3378 121.23 65.2027 121.846L55.7468 126.959C48.9738 130.619 42.2002 134.279 35.4326 137.95C32.7662 139.397 30.2507 139.353 28.011 137.823C26.0073 136.453 24.9311 134.312 25.0588 131.949C25.1935 129.441 26.6857 127.187 29.0501 125.92C36.6891 121.824 44.4697 117.689 51.9944 113.689C55.7346 111.7 59.4747 109.712 63.214 107.721L63.3532 107.647C63.8265 107.396 64.2736 107.159 64.6448 106.853C65.5847 106.082 65.8799 104.68 65.3313 103.591C64.7639 102.465 63.4492 101.921 62.2498 102.324C61.8475 102.46 61.4536 102.669 61.0369 102.891L60.8652 102.982C56.4599 105.308 52.0562 107.636 47.6524 109.964L37.5204 115.318C36.3834 115.918 35.2479 116.522 34.1127 117.126C31.1453 118.705 28.0769 120.338 25.0273 121.885C22.4027 123.217 19.7053 122.894 17.5046 120.981C15.3617 119.118 14.6276 116.631 15.3818 113.791C16.0708 111.197 18.0667 109.87 19.5081 109.098C28.8168 104.108 38.2714 99.0148 47.4146 94.0891L54.3184 90.3702C54.4936 90.2761 54.6703 90.1838 54.8464 90.0909C55.4 89.8002 55.9229 89.5263 56.4121 89.199C57.6771 88.3543 58.0785 86.9772 57.4351 85.6902C56.7901 84.404 55.3735 83.9477 53.9568 84.5651C53.6168 84.7131 53.2868 84.8961 52.9375 85.0901C52.8092 85.1612 52.6814 85.2323 52.5527 85.3019L45.0604 89.3372C36.2989 94.0563 27.2389 98.9356 18.3372 103.751C16.2957 104.856 14.4029 105.152 12.5496 104.658C9.72902 103.905 7.72891 101.528 7.40298 98.6265C7.0574 95.5523 8.55236 92.8647 11.5047 91.253C28.2084 82.1307 44.9151 73.0136 61.622 63.8961L73.1308 57.6151C74.2199 57.0204 75.3112 56.4297 76.4209 55.829L78.6008 54.6474L81.054 58.9135C82.7652 61.8877 84.4551 64.8246 86.1357 67.7662C87.7469 70.5865 90.0063 72.5989 92.8513 73.7483C93.0166 73.8153 93.182 73.8783 93.3485 73.9382C93.3493 73.9384 93.3497 73.9386 93.3501 73.9387C98.5565 75.8085 104.323 74.2802 108.041 70.0451C112.034 65.4961 112.656 59.2947 109.663 53.8611C107.083 49.1765 104.42 44.4344 101.846 39.8488C100.594 37.619 99.3421 35.3895 98.0942 33.1571C97.8885 32.7902 97.6955 32.4157 97.4788 31.9982C97.3716 31.7896 97.2575 31.57 97.1339 31.3344L96.7922 30.684L97.4859 30.4418C108.035 26.7614 118.154 26.6091 127.564 29.9894C129.587 30.7161 131.616 31.6186 133.595 32.672C142.611 37.4719 149.108 44.9384 153.457 55.4994C157.402 65.0834 157.883 75.8509 154.809 85.8184C151.725 95.8234 145.241 104.407 136.552 109.988C133.642 111.857 130.477 113.386 127.416 114.863C126.053 115.522 124.643 116.202 123.279 116.902C121.445 117.843 120.808 119.25 121.532 120.761C122.206 122.172 123.739 122.549 125.423 121.745L125.614 121.654C128.7 120.182 131.889 118.66 134.98 117.078C142.639 113.161 148.912 107.529 153.624 100.339C154.663 98.7526 155.604 97.0475 156.515 95.3988C156.932 94.643 157.35 93.887 157.777 93.1387L160.424 85.7691C160.584 84.7391 160.765 83.6971 160.94 82.6887C161.322 80.4788 161.718 78.1938 161.904 75.946C162.687 66.5183 160.484 56.4913 155.699 47.7113ZM104.349 55.1906C105.379 57.0428 106.546 59.142 106.237 61.7546C105.801 65.4415 103.26 68.3462 99.7626 69.153C98.1841 69.5172 96.5828 69.4342 95.1305 68.9125C93.355 68.2747 91.8817 67.0284 90.8694 65.3082C89.0267 62.1768 87.1957 58.968 85.4261 55.8656C84.6586 54.5206 83.8918 53.1762 83.1209 51.8331L82.9311 51.502C82.7245 51.1415 82.5179 50.7809 82.3071 50.4234C81.6585 49.3234 81.07 48.7082 80.4547 48.4872C79.7671 48.2402 78.9002 48.4349 77.6444 49.12C67.808 54.4829 57.9748 59.8518 48.1417 65.2208L34.1599 72.8531C31.6902 74.2007 29.2205 75.5469 26.7502 76.8934C23.8431 78.4778 20.9359 80.0626 18.0298 81.6492C17.8373 81.7542 17.6408 81.8864 17.4131 82.0393C17.2853 82.1253 17.1481 82.2174 16.9954 82.3165L16.361 82.7271L16.0678 82.0304C15.1284 79.7975 14.0905 77.5812 13.0868 75.4373C10.2005 69.2737 7.21594 62.9002 6.4401 55.7459C4.47906 37.6662 13.7999 19.7935 29.6337 11.2715C42.2246 4.49557 55.0707 3.67592 67.8106 8.82852C77.112 12.5925 84.3637 19.0921 89.364 28.1462C94.48 37.4106 99.5217 46.5097 104.349 55.1906Z" fill="black"/>
</svg>

<?xml version="1.0" encoding="utf-8"?>
<!-- Generator: Adobe Illustrator 16.0.0, SVG Export Plug-In . SVG Version: 6.00 Build 0)  -->
<!DOCTYPE svg PUBLIC "-//W3C//DTD SVG 1.1//EN" "http://www.w3.org/Graphics/SVG/1.1/DTD/svg11.dtd" [
	<!ENTITY ns_extend "http://ns.adobe.com/Extensibility/1.0/">
	<!ENTITY ns_ai "http://ns.adobe.com/AdobeIllustrator/10.0/">
	<!ENTITY ns_graphs "http://ns.adobe.com/Graphs/1.0/">
	<!ENTITY ns_vars "http://ns.adobe.com/Variables/1.0/">
	<!ENTITY ns_imrep "http://ns.adobe.com/ImageReplacement/1.0/">
	<!ENTITY ns_sfw "http://ns.adobe.com/SaveForWeb/1.0/">
	<!ENTITY ns_custom "http://ns.adobe.com/GenericCustomNamespace/1.0/">
	<!ENTITY ns_adobe_xpath "http://ns.adobe.com/XPath/1.0/">
]>
<svg version="1.1" id="Layer_1" xmlns:x="&ns_extend;" xmlns:i="&ns_ai;" xmlns:graph="&ns_graphs;"
	 xmlns="http://www.w3.org/2000/svg" xmlns:xlink="http://www.w3.org/1999/xlink" x="0px" y="0px" width="163px" height="161px"
	 viewBox="0 0 163 161" enable-background="new 0 0 163 161" xml:space="preserve">
<metadata>
	<sfw  xmlns="&ns_sfw;">
		<slices></slices>
		<sliceSourceBounds  width="161.197" height="159.845" x="118.862" y="120.989" bottomLeftOrigin="true"></sliceSourceBounds>
	</sfw>
</metadata>
<path d="M155.699,47.711c-4.791-8.792-11.961-15.947-20.191-20.145c-2.027-1.035-4.098-1.933-6.154-2.672
	c-10.522-3.78-21.529-3.693-32.717,0.257c-0.281,0.1-0.561,0.201-0.841,0.303c-0.231,0.083-0.462,0.167-0.694,0.25
	c-0.105,0.037-0.193,0.046-0.278,0.054l-0.536,0.064l-0.217-0.33c-0.068-0.105-0.143-0.214-0.22-0.327
	c-0.173-0.254-0.369-0.542-0.544-0.843c-5.784-9.915-14.84-17.483-25.5-21.312C55.82-1.293,42.75-0.698,31.003,4.688
	C19.531,9.949,11.058,18.205,5.818,29.228c-0.124,0.262-0.294,0.479-0.445,0.672c-0.042,0.053-0.083,0.105-0.123,0.16L2.617,37.39
	C2.6,37.519,2.585,37.647,2.57,37.776c-0.04,0.35-0.081,0.711-0.171,1.077c-1.924,7.784-2.042,15.21-0.352,22.073
	c1.052,4.271,2.728,8.472,4.347,12.535l0.084,0.209c1.012,2.541,2.217,5.062,3.382,7.501c0.529,1.107,1.058,2.216,1.574,3.331
	l0.282,0.61l-0.625,0.246c-5.531,2.167-8.959,6.971-8.947,12.538c0.011,5.37,3.217,9.943,8.365,11.936l0.589,0.228l-0.226,0.59
	c-1.468,3.834-1.356,7.465,0.334,10.791c1.724,3.396,4.552,5.516,8.663,6.496l0.634,0.152l-0.169,0.631
	c-1.041,3.859-0.519,7.275,1.594,10.442c1.958,2.937,4.923,4.688,8.834,5.226l0.571,0.079l-0.025,0.576
	c-0.016,0.383-0.04,0.752-0.062,1.112c-0.046,0.727-0.089,1.414-0.065,2.08c0.19,5.137,3.227,9.375,7.927,11.063
	c3.128,1.124,6.592,0.91,9.751-0.602c11.953-5.72,24.087-11.579,35.821-17.245c4.398-2.124,8.796-4.247,13.194-6.369
	c0.389-0.188,0.83-0.4,1.188-0.661c1.021-0.739,1.395-2.058,0.912-3.207c-0.28-0.666-0.831-1.187-1.512-1.432
	c-0.479-0.173-0.987-0.195-1.472-0.063c-0.471,0.127-0.936,0.354-1.426,0.594l-0.266,0.129c-7.539,3.635-15.077,7.271-22.615,10.906
	c-8.355,4.028-16.71,8.059-25.066,12.086l-0.091,0.045c-0.671,0.322-1.366,0.658-2.103,0.885c-1.481,0.455-3.011,0.429-4.425-0.079
	c-1.752-0.629-3.146-1.931-3.925-3.665c-1.435-3.198-0.326-6.943,2.637-8.904c0.7-0.464,1.442-0.859,2.16-1.244l0.455-0.244
	c3.461-1.871,6.923-3.739,10.386-5.609c6.111-3.301,12.223-6.6,18.329-9.909c1.792-0.97,2.398-2.433,1.623-3.913
	c-0.775-1.479-2.254-1.747-4.052-0.79c-1.141,0.606-2.275,1.224-3.411,1.839l-9.456,5.113c-6.773,3.66-13.546,7.32-20.314,10.991
	c-2.667,1.446-5.182,1.403-7.421-0.127c-2.004-1.37-3.08-3.511-2.953-5.874c0.135-2.508,1.627-4.762,3.992-6.029
	c7.639-4.096,15.419-8.23,22.944-12.23c3.74-1.989,7.48-3.978,11.219-5.969l0.139-0.074c0.474-0.25,0.92-0.487,1.292-0.793
	c0.939-0.771,1.235-2.174,0.686-3.263c-0.567-1.126-1.882-1.67-3.081-1.267c-0.402,0.136-0.796,0.345-1.213,0.566l-0.172,0.092
	c-4.405,2.326-8.809,4.653-13.213,6.981l-10.132,5.354c-1.137,0.6-2.272,1.203-3.408,1.808c-2.967,1.579-6.036,3.212-9.085,4.759
	c-2.625,1.332-5.322,1.01-7.523-0.904c-2.143-1.862-2.877-4.35-2.123-7.189c0.689-2.594,2.685-3.921,4.126-4.693
	c9.309-4.99,18.763-10.083,27.906-15.009l6.904-3.719c0.175-0.095,0.352-0.187,0.528-0.279c0.554-0.29,1.077-0.564,1.566-0.892
	c1.265-0.845,1.667-2.223,1.023-3.509c-0.645-1.286-2.062-1.743-3.478-1.126c-0.34,0.148-0.67,0.332-1.02,0.525
	c-0.128,0.071-0.256,0.143-0.385,0.212l-7.492,4.036c-8.762,4.719-17.822,9.598-26.723,14.413c-2.042,1.104-3.935,1.401-5.788,0.907
	c-2.821-0.754-4.821-3.131-5.147-6.031c-0.345-3.074,1.149-5.762,4.102-7.374c16.704-9.122,33.41-18.239,50.117-27.357l11.509-6.281
	c1.089-0.595,2.18-1.186,3.29-1.786l2.18-1.182l2.454,4.266c1.711,2.974,3.401,5.911,5.082,8.853c1.611,2.82,3.87,4.833,6.716,5.982
	c0.165,0.067,0.33,0.13,0.497,0.19c0.001,0,0.001,0,0.001,0c5.207,1.87,10.974,0.342,14.691-3.894
	c3.993-4.549,4.615-10.75,1.622-16.184c-2.58-4.685-5.243-9.427-7.817-14.013c-1.252-2.229-2.504-4.459-3.752-6.691
	c-0.205-0.367-0.398-0.742-0.615-1.159c-0.107-0.208-0.221-0.428-0.345-0.664l-0.342-0.65l0.694-0.242
	c10.549-3.681,20.668-3.833,30.078-0.453c2.022,0.727,4.052,1.629,6.031,2.683c9.016,4.8,15.512,12.267,19.861,22.828
	c3.945,9.584,4.426,20.352,1.352,30.319c-3.084,10.005-9.567,18.589-18.257,24.17c-2.909,1.869-6.075,3.397-9.136,4.875
	c-1.363,0.658-2.773,1.339-4.137,2.039c-1.834,0.94-2.471,2.348-1.747,3.858c0.674,1.411,2.206,1.788,3.891,0.984l0.19-0.091
	c3.087-1.473,6.275-2.994,9.367-4.576c7.658-3.917,13.932-9.549,18.644-16.739c1.039-1.587,1.979-3.292,2.892-4.94
	c0.416-0.756,0.834-1.512,1.262-2.26l2.646-7.369c0.16-1.03,0.342-2.072,0.516-3.081c0.383-2.209,0.778-4.495,0.965-6.743
	C162.688,66.519,160.484,56.491,155.699,47.711z M104.35,55.19c1.029,1.853,2.196,3.952,1.887,6.564
	c-0.436,3.687-2.977,6.592-6.474,7.398c-1.579,0.364-3.18,0.281-4.632-0.24c-1.775-0.638-3.249-1.884-4.262-3.604
	c-1.842-3.131-3.674-6.34-5.443-9.442c-0.768-1.345-1.534-2.689-2.305-4.033l-0.189-0.331c-0.207-0.36-0.414-0.721-0.625-1.079
	c-0.648-1.1-1.237-1.715-1.852-1.936c-0.688-0.247-1.554-0.052-2.81,0.633c-9.836,5.363-19.67,10.731-29.503,16.101L34.16,72.853
	c-2.469,1.348-4.939,2.694-7.41,4.041c-2.907,1.584-5.814,3.169-8.72,4.756c-0.192,0.104-0.389,0.237-0.617,0.39
	c-0.128,0.086-0.265,0.178-0.417,0.277l-0.635,0.41l-0.293-0.696c-0.939-2.233-1.978-4.449-2.981-6.593
	C10.201,69.273,7.216,62.9,6.44,55.746c-1.961-18.08,7.36-35.953,23.194-44.475c12.591-6.776,25.437-7.596,38.177-2.443
	c9.301,3.764,16.553,10.264,21.553,19.317C94.48,37.411,99.521,46.51,104.35,55.19z"/>
<circle cx="110.526" cy="126.275" r="2.724"/>
</svg>
